X: 104201
T: The SMITH'S A GALLANT FIREMAN
Q:"Strathspey."
R: Strathspey.
%R:strathspey
Z: 2017 by John Chambers <jc:trillian.mit.edu>
B: Kerr's Merrie Melodies v.1 p.4 s.2 #1
M: C
L: 1/8
K: D
[|\
vD3uF A<A A>uF | vA>vBud>uA F2(F>D) |\
E3G B<B B>uA | vd>uf(ed) B2(B<d) |\
D3F A<A A>F | A>Bd>A F2(F>D) |\
G>BG>B F>AF>A | E>FG>A B2A2 |]
d2(d>f) d<d d>uA | vB>vAud>uA F2(F>D) |\
e2(e>f) e2ue>uf | g>fe>d B2A2 |\
d2(d>f) d<d d>uA | B>Ad>A F2(F>D) |\
G>BG>B F>AF>A | E>FG>A B2A2 |]

%%sep 1 1 500
%%sep 1 1 500

